X: 1637
T: Sabâ Peşrev
C: Tanburî Büyük Osman Bey
O: Turkey
F: http://compmusic.upf.edu/node/140
N: saba--pesrev--devrikebir----tanburi_buyuk_osman_bey
N: makam= saba
N: form= pesrev
N: usul= devrikebir = 28/4
M: 28/4
L: 1/16
K: C _2/4B _3/4d  
Q: 1/4=78
%%MIDI tuningsystem comma53
c4 B2c2 A4 c4  | B4 d4 c3B A4  | A2z2 c2d2 c2B2 A2B2  | \
w:  1. HANE  |   |   | 
c4 d6e2 d2c2  | 
w:   | 
c4 B4 {g}f2g2 f2e2  | e2f2 e2d2 dcde d2c2  | \
w:   |   | 
B2d2 c8 z4  | d4 c4 d4 e2f2  | 
w:   |   | 
g2f2 e2d2 c4 g4  | f4 _7/8a4 g2f2 e2d2  | \
w:   |   | 
c6ef g4 z4  | g2_7/8a2 g2f2 e2f2 e2d2  | 
w:   |   | 
d3c B2c2 B2c2 d2{e}dc  | c6ef g4 z4  | \
w:   |   | 
g4 f2_7/8a2 g8  | f4 g2_7/8a2 _1/4b4 a2g2  | 
w:   |   | 
g2f2 {g}f2e2 f4 z4  | e2g2 f8 e4  | d4 c4 gfg_7/8a g2f2  | \
w:   |   |   | 
e2f2 e2d2 dcde d2c2  | 
w:   | 
c6ef g4 z4  | _1/4b2_7/8a2 g2f2 e2f2 g4  | \
w:   |  TESLİM  | 
_7/8a2g2 f2e2 d2e2 f4  | g2f2 e2d2 c2d2 e2f2  | 
w:   |   | 
e2d2 c2d2 c4 B2c2  | A6G2 dcde d2c2  | \
w:   |   | 
c2d2 c2B2 ABc4BA  | 
w:   | 
A6=d2 e4 z4  | =d4 e4 c3B A4  | B4 c3B A6z2  | \
w:  2. HANEYE  |  2. HANE  |   | 
=d4 c2B2 B2A2 G2^3/4F2  | 
w:   | 
G4 A2G2 A4 B4  | c4 d4 d2e2 d2c2  | c4 B4 dcde d2c2  | \
w:   |   |   | 
B2d2 c8 z4  | 
w:   | 
c2d2 c4 _7/8d2e2 d4  | e2f2 e4 f2g2 f4  | \
w:   |   | 
g2a2 g2a2 a8  | a2z2 a2a2 a4 f4  | 
w:   |   | 
g4 a4 _b3a g2a2  | g4 a6z2 a2a2  | c'3_b a8 z4  | \
w:   |   |   | 
_b4 a2b2 =d'2c'2 b2a2  | 
w:   | 
g4 f2a2 g6z2  | f4 g2_7/8a2 c'2_1/4b2 a2g2  | \
w:   |   | 
g2f2 f2e2 f8  | f4 _7/8a4 g4 f4  | 
w:   |   | 
e2f2 e2d2 dcde d2c2  | c6ef g8  | _1/4b2_7/8a2 g2f2 e2f2 g4  | 
w:   |   |  TESLİM  | 
_7/8a2g2 f2e2 d2e2 f4  | g2f2 e2d2 c2d2 e2f2  | \
w:   |   | 
e2d2 c2d2 c4 B2c2  | 
w:   | 
A6G2 dcde d2c2  | c2d2 c2B2 ABc4BA  | \
w:   |   | 
A6g2 a4 z4  | 
w:  3. HANEYE  | 
a4 g4 a6z2  | _b3a g2a2 g4 a2b2  | a2g2 f2g2 f8  | \
w:  3. HANE  |   |   | 
f2z2 g2a2 g4 f4  | 
w:   | 
g4 a4 _b3a g2a2  | g4 a8 z4  | a2g2 f2e2 =d2^c2 d4  | \
w:   |   |   | 
z4 c'8 b4  | a6g2 a4 b4  | 
w:   |   | 
=d'3c' b2c'2 d'4 z4  | =d'3c' d'2e'2 d'2c'2 b4  | \
w:   |   | 
c'3b c'2=d'2 c'2b2 a4  | b3a b2c'2 b3a g2a2  | 
w:   |   | 
g4 c'3b a4 z4  | _b8 a2b2 a2g2  | g2_7/8a2 g2f2 f2g2 f2e2  | \
w:   |   |   | 
e2f2 e2d2 d2e2 d2c2  | 
w:   | 
c2d2 c2B2 c3B A4  | A2z2 c2d2 c4 B2c2  | \
w:   |   | 
A6G2 dcde d2c2  | 
w:   | 
c6ef g4 z4  | _1/4b2_7/8a2 g2f2 e2f2 g4  | \
w:   |  TESLİM  | 
_7/8a2g2 f2e2 d2e2 f4  | g2f2 e2d2 c2d2 e2f2  | 
w:   |   | 
e2d2 c2d2 c4 B2c2  | A6G2 dcde d2c2  | \
w:   |   | 
c2d2 c2B2 ABc4BA  | 
w:   | 
A6^c2 =d4 z4  | =d4 ^c4 d4 e2f2  | =d4 e8 a4  | \
w:  4. HANEYE  |  4. HANE  |   | 
a2g2 f2e2 =d2^c2 d4  | z4 =d8 ^c4  | 
w:   |   | 
=B8 g4 f2e2  | e2=d2 ^c2d2 c2z2 ede2  | \
w:   |   | 
=d6f2 e4 z4  | e4 =d2f2 e6z2  | 
w:   |   | 
f3e f2g2 f4 a4  | a2g2 f2e2 =d2^c2 d4  | \
w:   |   | 
z4 =d8 ^c4  | _7/8B6A2 B4 e2=d2  | 
w:   |   | 
^c2=d2 c2_7/8B2 ABc4BA  | A6B2 c4 z4  | \
w:   |   | 
c2de d2c2 c3B A4  | 
w:   | 
B2cd c2B2 B3A G4  | A2Bc B2A2 A3G ^3/4F2A2  | \
w:   |   | 
G6c2 B2d2 c4  | 
w:   | 
c2z2 c2d2 e2f2 e2d2  | d3c B2c2 B2c2 dedc  | \
w:   |   | 
c6ef g4 z4  | 
w:   | 
_1/4b2_7/8a2 g2f2 e2f2 g4  | _7/8a2g2 f2e2 d2e2 f4  | \
w:  TESLİM  |   | 
g2f2 e2d2 c2d2 e2f2  | 
w:   | 
e2d2 c2d2 c4 B2c2  | A6G2 dcde d2c2  | \
w:   |   | 
c2d2 c2B2 ABc4BA  | 
w:   | 
A12 z4  | |


